packages/core/src/svgs/tokens/branded/GGP.svg

<svg width="24" height="24" viewBox="0 0 24 24" fill="none" xmlns="http://www.w3.org/2000/svg">
<path d="M5.12494 16.3749V7.6251H10.9623C11.1874 7.6251 11.3747 7.41885 11.3747 7.1876V4.91265C11.3747 4.6814 11.1874 4.50015 10.9623 4.50015H2.4125C2.18749 4.50015 2 4.68765 2 4.91265V19.0874C2 19.3187 2.18749 19.4998 2.4125 19.4998H10.9623C11.1874 19.4998 11.3747 19.3124 11.3747 19.0874V11.125C11.3747 10.8938 11.1874 10.75 10.9623 10.75H6.7499C6.51866 10.75 6.37492 10.8938 6.37492 11.125V13.4C6.37492 13.6313 6.51866 13.875 6.7499 13.875H8.24987V16.3749H5.12494Z" fill="#9826FF"/>
<path d="M12.625 4.90015C12.625 4.6814 12.8188 4.50015 13.0625 4.50015H16.5624C16.8061 4.50015 16.9999 4.6814 16.9999 4.90015V5.10014C16.9999 5.32514 16.8061 5.50014 16.5624 5.50014H14.2625V6.50011H16.5624C16.8061 6.50011 16.9999 6.68761 16.9999 6.90011V7.1001C16.9999 7.32511 16.8061 7.5001 16.5624 7.5001H14.2625V8.50008H16.5624C16.8061 8.50008 16.9999 8.68133 16.9999 8.90008V9.10004C16.9999 9.31879 16.8061 9.50005 16.5624 9.50005H13.0625C12.8188 9.50005 12.625 9.31879 12.625 9.10004V4.90015ZM17.6249 4.90015C17.6249 4.6814 17.8186 4.50015 18.0624 4.50015H21.5624C21.8061 4.50015 21.9999 4.6814 21.9999 4.90015V5.10014C21.9999 5.32514 21.8061 5.50014 21.5624 5.50014H19.2686V6.50011H21.5624C21.8061 6.50011 21.9999 6.68761 21.9999 6.90011V7.1001C21.9999 7.32511 21.8061 7.5001 21.5624 7.5001H19.2686V8.50008H21.5561C21.8061 8.50008 21.9936 8.68133 21.9936 8.90008V9.10004C21.9936 9.31879 21.8061 9.50005 21.5561 9.50005H18.0562C17.8186 9.50005 17.6249 9.31879 17.6249 9.10004V4.90015Z" fill="url(#paint0_linear_364_10715)"/>
<path d="M14.1874 17.175V17.7124C14.1874 17.8499 14.2937 17.9625 14.4374 17.9625H15.4999C15.5663 17.9625 15.6298 17.9361 15.6766 17.8892C15.7236 17.8423 15.7499 17.7787 15.7499 17.7124V17.175C15.7499 17.1086 15.7236 17.045 15.6766 16.9981C15.6298 16.9513 15.5663 16.9249 15.4999 16.9249H14.4374C14.3712 16.9249 14.3076 16.9513 14.2606 16.9981C14.2138 17.045 14.1874 17.1086 14.1874 17.175ZM14.1874 12.5437V13.0812C14.1874 13.2125 14.2937 13.3312 14.4374 13.3312H14.9749C15.0413 13.3312 15.1048 13.3049 15.1517 13.258C15.1986 13.2111 15.2249 13.1476 15.2249 13.0812V12.5437C15.2249 12.4775 15.1986 12.4139 15.1517 12.3669C15.1048 12.3201 15.0413 12.2937 14.9749 12.2937H14.4374C14.3712 12.2937 14.3076 12.3201 14.2606 12.3669C14.2138 12.4139 14.1874 12.4775 14.1874 12.5437ZM12.625 11.1625C12.625 10.9312 12.8125 10.75 13.0437 10.75V10.7562H16.3749C16.6062 10.7562 16.7937 10.9438 16.7937 11.1688V12.3H16.8312C16.925 12.3 17.0186 12.2625 17.0937 12.2062C17.2277 12.0969 17.3956 12.0372 17.5687 12.0375C18.0874 12.0375 18.4874 12.5376 18.3124 13.0687C18.2781 13.1656 18.225 13.2548 18.1561 13.331C18.0871 13.4071 18.0035 13.4688 17.9105 13.5124C17.8174 13.556 17.7167 13.5808 17.614 13.5851C17.5113 13.5893 17.4088 13.5732 17.3124 13.5375C17.2312 13.5124 17.1624 13.475 17.0937 13.4249C17.0203 13.3624 16.9276 13.3271 16.8312 13.325H16.7937V14.4562C16.7937 14.6874 16.6062 14.8687 16.3749 14.8687H14.3936C14.3389 14.8687 14.2866 14.8904 14.2478 14.9292C14.2092 14.9678 14.1874 15.0203 14.1874 15.075V15.1812C14.1874 15.2938 14.2812 15.3874 14.3936 15.3874H16.8936C17.1249 15.3874 17.3124 15.5686 17.3124 15.7937V16.5625C17.1437 16.5125 16.9562 16.5062 16.7624 16.5749C16.4374 16.6749 16.1936 16.9499 16.1375 17.2811C16.112 17.4357 16.1261 17.5942 16.1787 17.7418C16.2312 17.8895 16.3203 18.0214 16.4379 18.1251C16.5553 18.2287 16.6972 18.3009 16.8501 18.3348C17.0031 18.3686 17.1622 18.363 17.3124 18.3186V19.0874C17.3124 19.3187 17.1249 19.4998 16.8936 19.4998H13.0437C12.989 19.5007 12.9347 19.4906 12.884 19.4703C12.8332 19.4499 12.787 19.4197 12.7479 19.3812C12.709 19.3429 12.6781 19.2971 12.6569 19.2466C12.6358 19.1962 12.625 19.1421 12.625 19.0874V15.5875C12.625 15.4749 12.7188 15.3874 12.8312 15.3874H12.9375C13.0562 15.3874 13.1437 15.2938 13.1437 15.1812V15.075C13.1437 15.0203 13.122 14.9678 13.0833 14.9292C13.0447 14.8904 12.9922 14.8687 12.9375 14.8687H12.8312C12.7765 14.8687 12.724 14.8469 12.6854 14.8083C12.6467 14.7696 12.625 14.7171 12.625 14.6625V11.1625ZM18.8749 13.0812V12.5437C18.8749 12.4063 18.9874 12.2937 19.1248 12.2937H20.1873C20.3311 12.2937 20.4373 12.4 20.4373 12.5437V13.0812C20.4373 13.1476 20.411 13.2111 20.3641 13.258C20.3173 13.3049 20.2537 13.3312 20.1873 13.3312H19.1248C19.0586 13.3312 18.995 13.3049 18.9481 13.258C18.9013 13.2111 18.8749 13.1476 18.8749 13.0812ZM17.7311 10.75C17.4998 10.75 17.3124 10.9375 17.3124 11.1625V11.9312C17.4368 11.895 17.5676 11.8851 17.6961 11.9023C17.8246 11.9195 17.9481 11.9633 18.0588 12.0309C18.1693 12.0986 18.2646 12.1886 18.3383 12.2952C18.4123 12.4018 18.463 12.5227 18.4874 12.65C18.5129 12.8046 18.4986 12.9631 18.4461 13.1107C18.3936 13.2583 18.3044 13.3901 18.187 13.4939C18.0694 13.5976 17.9277 13.6698 17.7747 13.7036C17.6217 13.7375 17.4626 13.7319 17.3124 13.6874V14.4562C17.3124 14.6813 17.4998 14.8624 17.7311 14.8624H19.3998V14.9061C19.3998 14.9999 19.3624 15.0937 19.2998 15.1686C19.2561 15.2312 19.2123 15.2999 19.1874 15.3813C19.1248 15.5562 19.1124 15.7499 19.2249 15.9687C19.3624 16.2249 19.6311 16.4061 19.9248 16.4061C20.3561 16.4061 20.6998 16.0624 20.6998 15.6375C20.6998 15.5437 20.6811 15.4625 20.6498 15.3813C20.6232 15.3038 20.583 15.2319 20.5311 15.1686C20.472 15.0938 20.4392 15.0017 20.4373 14.9061V14.8624H21.581C21.8123 14.8624 21.9936 14.6813 21.9936 14.4562V11.1625C21.9936 10.9312 21.8061 10.75 21.581 10.75H17.7311ZM19.3998 17.7124V17.175C19.3998 17.0374 19.5123 16.9249 19.6498 16.9249H20.1936C20.3311 16.9249 20.4436 17.0374 20.4436 17.175V17.7124C20.4436 17.7787 20.4173 17.8423 20.3704 17.8892C20.3235 17.9361 20.26 17.9625 20.1936 17.9625H19.6498C19.5836 17.9625 19.52 17.9361 19.4731 17.8892C19.4262 17.8423 19.3998 17.7787 19.3998 17.7124ZM20.8124 15.3874C20.8373 15.4688 20.8498 15.55 20.8498 15.6375C20.8513 15.7705 20.8242 15.9023 20.7701 16.0238C20.716 16.1454 20.6363 16.2538 20.5366 16.3418C20.4369 16.4298 20.3192 16.4953 20.1919 16.5336C20.0644 16.572 19.9302 16.5825 19.7986 16.5642C19.6667 16.5461 19.5404 16.4996 19.4281 16.4283C19.316 16.3569 19.2205 16.2621 19.1483 16.1504C19.076 16.0387 19.0287 15.9127 19.0096 15.781C18.9904 15.6493 18.9998 15.5151 19.0373 15.3874H18.2498C18.0187 15.3874 17.8311 15.5686 17.8311 15.7937V16.9249H17.7937C17.698 16.9246 17.6054 16.8915 17.5312 16.8311C17.4686 16.7812 17.3937 16.7436 17.3124 16.7187C17.1374 16.6561 16.9374 16.6437 16.7186 16.7499C16.4561 16.8874 16.2687 17.1562 16.2687 17.4499C16.2709 17.5737 16.3028 17.695 16.3616 17.8038C16.4204 17.9127 16.5044 18.0059 16.6066 18.0756C16.7088 18.1453 16.8262 18.1897 16.949 18.2047C17.0718 18.2198 17.1963 18.2053 17.3124 18.1624C17.3937 18.1374 17.4623 18.0998 17.5312 18.0499C17.6061 17.9874 17.6999 17.9562 17.7937 17.9562H17.8311V19.0811C17.8311 19.3124 18.0187 19.4937 18.2498 19.4937H21.581C21.8123 19.4937 21.9999 19.3061 21.9999 19.0874V15.7937C21.9999 15.5624 21.8123 15.3813 21.581 15.3813H20.8124V15.3874Z" fill="url(#paint1_linear_364_10715)"/>
<defs>
<linearGradient id="paint0_linear_364_10715" x1="12" y1="4.50015" x2="12" y2="19.4999" gradientUnits="userSpaceOnUse">
<stop stop-color="#8E34E3"/>
<stop offset="1" stop-color="#7865E2"/>
</linearGradient>
<linearGradient id="paint1_linear_364_10715" x1="17.313" y1="10.7507" x2="17.313" y2="19.5005" gradientUnits="userSpaceOnUse">
<stop stop-color="#6B6BF3"/>
<stop offset="1" stop-color="#31C4FA"/>
</linearGradient>
</defs>
</svg>

<svg xmlns="http://www.w3.org/2000/svg" width="24" height="24" fill="none" viewBox="0 0 24 24">
    <path fill="#9826FF" d="M5.125 16.375v-8.75h5.837c.225 0 .413-.206.413-.437V4.913a.41.41 0 0 0-.413-.413h-8.55A.416.416 0 0 0 2 4.913v14.174c0 .232.187.413.413.413h8.55a.416.416 0 0 0 .412-.413v-7.962c0-.231-.188-.375-.413-.375H6.75c-.231 0-.375.144-.375.375V13.4c0 .231.144.475.375.475h1.5v2.5z"/>
    <path fill="url(#GGP__a)" d="M12.625 4.9c0-.219.194-.4.438-.4h3.5c.243 0 .437.181.437.4v.2c0 .225-.194.4-.438.4h-2.3v1h2.3c.244 0 .438.188.438.4v.2c0 .225-.194.4-.438.4h-2.3v1h2.3c.244 0 .438.181.438.4v.2c0 .219-.194.4-.438.4h-3.5c-.243 0-.437-.181-.437-.4zm5 0c0-.219.194-.4.437-.4h3.5c.244 0 .438.181.438.4v.2c0 .225-.194.4-.438.4H19.27v1h2.293c.244 0 .438.188.438.4v.2c0 .225-.194.4-.438.4H19.27v1h2.287c.25 0 .438.181.438.4v.2c0 .219-.188.4-.438.4h-3.5c-.237 0-.431-.181-.431-.4z"/>
    <path fill="url(#GGP__b)" d="M14.187 17.175v.537c0 .138.107.25.25.25H15.5a.25.25 0 0 0 .25-.25v-.537a.25.25 0 0 0-.25-.25h-1.063a.25.25 0 0 0-.25.25m0-4.631v.537c0 .132.107.25.25.25h.538a.25.25 0 0 0 .25-.25v-.537a.25.25 0 0 0-.25-.25h-.538a.25.25 0 0 0-.25.25m-1.562-1.382c0-.23.188-.412.419-.412v.006h3.33c.232 0 .42.188.42.413V12.3h.037a.45.45 0 0 0 .263-.094.75.75 0 0 1 .475-.168c.518 0 .918.5.743 1.03a.78.78 0 0 1-.698.517.8.8 0 0 1-.302-.048.7.7 0 0 1-.218-.112.42.42 0 0 0-.263-.1h-.037v1.131a.414.414 0 0 1-.42.413h-1.98a.206.206 0 0 0-.207.206v.106c0 .113.094.206.207.206h2.5c.23 0 .418.182.418.407v.768a.88.88 0 0 0-.55.013.902.902 0 0 0-.324 1.55.93.93 0 0 0 .874.194v.768a.413.413 0 0 1-.418.413h-3.85a.41.41 0 0 1-.419-.413v-3.5c0-.112.094-.2.206-.2h.107a.204.204 0 0 0 .206-.206v-.106a.206.206 0 0 0-.207-.206h-.106a.206.206 0 0 1-.206-.207zm6.25 1.92v-.538a.25.25 0 0 1 .25-.25h1.062c.144 0 .25.106.25.25v.537a.25.25 0 0 1-.25.25h-1.062a.25.25 0 0 1-.25-.25M17.73 10.75a.417.417 0 0 0-.419.412v.77a.93.93 0 0 1 1.175.718.925.925 0 0 1-1.175 1.037v.77c0 .224.188.405.42.405H19.4v.044a.4.4 0 0 1-.1.263.8.8 0 0 0-.113.212.7.7 0 0 0 .038.588.81.81 0 0 0 .7.437.77.77 0 0 0 .775-.768.7.7 0 0 0-.05-.257.7.7 0 0 0-.119-.212.44.44 0 0 1-.094-.263v-.044h1.144a.407.407 0 0 0 .413-.406v-3.293a.41.41 0 0 0-.413-.413zm1.669 6.962v-.537a.25.25 0 0 1 .25-.25h.544a.25.25 0 0 1 .25.25v.537a.25.25 0 0 1-.25.25h-.544a.25.25 0 0 1-.25-.25m1.412-2.325a.924.924 0 1 1-1.775 0h-.787a.41.41 0 0 0-.419.407v1.13h-.037a.42.42 0 0 1-.263-.093.7.7 0 0 0-.219-.112.74.74 0 0 0-.593.03c-.263.138-.45.407-.45.7a.773.773 0 0 0 1.043.713.7.7 0 0 0 .22-.112.4.4 0 0 1 .262-.094h.037v1.125c0 .231.188.413.419.413h3.331a.416.416 0 0 0 .419-.407v-3.293a.413.413 0 0 0-.419-.413h-.769z"/>
    <defs>
        <linearGradient id="GGP__a" x1="12" x2="12" y1="4.5" y2="19.5" gradientUnits="userSpaceOnUse">
            <stop stop-color="#8E34E3"/>
            <stop offset="1" stop-color="#7865E2"/>
        </linearGradient>
        <linearGradient id="GGP__b" x1="17.313" x2="17.313" y1="10.751" y2="19.5" gradientUnits="userSpaceOnUse">
            <stop stop-color="#6B6BF3"/>
            <stop offset="1" stop-color="#31C4FA"/>
        </linearGradient>
    </defs>
</svg>
